assets/images/bank-note.svg

<?xml version="1.0" encoding="UTF-8" standalone="no"?>
<svg width="100px" height="20px" viewBox="0 0 100 20" version="1.1" xmlns="http://www.w3.org/2000/svg" xmlns:xlink="http://www.w3.org/1999/xlink">
    <!-- Generator: Sketch 40 (33762) - http://www.bohemiancoding.com/sketch -->
    <title>bank-note</title>
    <desc>Created with Sketch.</desc>
    <defs></defs>
    <g id="Page-1" stroke="none" stroke-width="1" fill="none" fill-rule="evenodd">
        <g id="bank-note" fill="#ddd">
            <path d="M21.1841339,20 C21.5411448,19.869748 21.9037256,19.7358773 22.272392,19.5983261 C22.6346445,19.4631679 23.8705367,18.9999982 24.0399055,18.9366758 C33.6397477,15.3475548 39.6469349,14 50,14 C60.2711361,14 65.3618399,15.2217689 74.6286093,18.9284767 C75.584355,19.310775 76.4978747,19.6675274 77.3787841,20 L83.604005,20 C81.0931362,19.2694473 78.4649665,18.3089537 75.3713907,17.0715233 C65.8881601,13.2782311 60.5621972,12 50,12 C39.3741437,12 33.144814,13.3973866 23.3395101,17.0633242 C23.1688625,17.1271247 21.9338538,17.5899633 21.5732596,17.7245028 C19.0984715,18.6478581 16.912678,19.3994574 14.8494171,20 L21.1841339,20 L21.1841339,20 Z M21.1841339,0 C13.2575214,2.89194861 8.07672845,4 7.87150385e-14,4 L7.81597009e-14,4 L0,2 C5.74391753,2 9.9514017,1.4256397 14.8494171,1.40165657e-15 L21.1841339,6.9388939e-17 L21.1841339,0 Z M77.3787841,2.21705987e-12 C85.238555,2.9664329 90.5022896,4 100,4 L100,2 C93.1577329,2 88.6144135,1.4578092 83.604005,1.04805054e-13 L77.3787841,0 L77.3787841,2.21705987e-12 Z M7.87150385e-14,14 C8.44050043,14 13.7183277,12.7898887 22.272392,9.59832609 C22.6346445,9.46316794 23.8705367,8.99999822 24.0399055,8.9366758 C33.6397477,5.34755477 39.6469349,4 50,4 C60.2711361,4 65.3618399,5.2217689 74.6286093,8.92847669 C84.1118399,12.7217689 89.4378028,14 100,14 L100,12 C89.7288639,12 84.6381601,10.7782311 75.3713907,7.07152331 C65.8881601,3.2782311 60.5621972,2 50,2 C39.3741437,2 33.144814,3.39738661 23.3395101,7.0633242 C23.1688625,7.12712472 21.9338538,7.58996334 21.5732596,7.72450279 C13.2235239,10.8398294 8.16350991,12 0,12 L7.81597009e-14,14 L7.87150385e-14,14 L7.87150385e-14,14 Z" id="Combined-Shape"></path>
        </g>
    </g>
</svg>

<?xml version="1.0" encoding="utf-8"?>
<!-- Generator: Adobe Illustrator 28.1.0, SVG Export Plug-In . SVG Version: 6.00 Build 0)  -->
<svg version="1.1" id="Layer_1" xmlns="http://www.w3.org/2000/svg" xmlns:xlink="http://www.w3.org/1999/xlink" x="0px" y="0px"
	 viewBox="0 0 100 20" style="enable-background:new 0 0 100 20;" xml:space="preserve">
<style type="text/css">
	.st0{fill-rule:evenodd;clip-rule:evenodd;fill:#B59DA4;}
</style>
<g id="Page-1">
	<g id="bank-note">
		<path id="Combined-Shape" class="st0" d="M21.2,20c0.4-0.1,0.7-0.3,1.1-0.4c0.4-0.1,1.6-0.6,1.8-0.7c9.6-3.6,15.6-4.9,26-4.9
			c10.3,0,15.4,1.2,24.6,4.9c1,0.4,1.9,0.7,2.8,1.1h6.2c-2.5-0.7-5.1-1.7-8.2-2.9C65.9,13.3,60.6,12,50,12
			c-10.6,0-16.9,1.4-26.7,5.1c-0.2,0.1-1.4,0.5-1.8,0.7c-2.5,0.9-4.7,1.7-6.7,2.3H21.2L21.2,20z M21.2,0C13.3,2.9,8.1,4,0,4l0,0V2
			c5.7,0,10-0.6,14.8-2H21.2L21.2,0z M77.4,0c7.9,3,13.1,4,22.6,4V2c-6.8,0-11.4-0.5-16.4-2L77.4,0L77.4,0z M0,14
			c8.4,0,13.7-1.2,22.3-4.4C22.6,9.5,23.9,9,24,8.9C33.6,5.3,39.6,4,50,4c10.3,0,15.4,1.2,24.6,4.9C84.1,12.7,89.4,14,100,14v-2
			c-10.3,0-15.4-1.2-24.6-4.9C65.9,3.3,60.6,2,50,2C39.4,2,33.1,3.4,23.3,7.1c-0.2,0.1-1.4,0.5-1.8,0.7C13.2,10.8,8.2,12,0,12V14
			L0,14L0,14z"/>
	</g>
</g>
</svg>
